;Project FRS Radio
;Created by Estlcam version 8 build 8.507
;Machining time about 12:51:26 AM hours

G90
M03 S24000
G00 X0.0000 Y0.0000 Z0.0000
G00 Z2.0000


;No. 1: Part 46
G00 X44.2250 Y6.1750
G00 Z0.5000
G01 Z-0.1000 F60 S24000
G01 X44.7250 Y6.6793 F120
G01 Y9.5451
G01 X44.1213 Y10.1750
G01 X44.0800
G01 X43.2287
G01 X42.6250 Y9.5451
G01 Y6.6793
G01 X43.1205 Y6.1838
G01 X43.1250 Y6.1600
G01 Y4.4000
G01 X42.8750 Y4.1193
G01 Y1.9293
G01 X43.3293 Y1.4750
G01 X43.3700
G01 X44.0207
G01 X44.4750 Y1.9293
G01 Y4.1193
G01 X44.2250 Y4.3943
G01 Y6.1750
G01 Z-0.2000 F60
G01 X44.7250 Y6.6793 F120
G01 Y9.5451
G01 X44.1213 Y10.1750
G01 X44.0800
G01 X43.2287
G01 X42.6250 Y9.5451
G01 Y6.6793
G01 X43.1205 Y6.1838
G01 X43.1250 Y6.1600
G01 Y4.4000
G01 X42.8750 Y4.1193
G01 Y1.9293
G01 X43.3293 Y1.4750
G01 X43.3700
G01 X44.0207
G01 X44.4750 Y1.9293
G01 Y4.1193
G01 X44.2250 Y4.3943
G01 Y6.1750
G00 Z2.0000


;No. 2: Part 48
G00 X54.6500 Y1.9284 Z2.0000
G00 Z0.5000
G01 Z-0.1000 F60
G01 Y4.1207 F120
G01 X54.1707 Y4.6000
G01 X54.1300
G01 X53.5043
G01 X53.0250 Y4.1207
G01 Y1.9284
G01 X53.5051 Y1.4750
G01 X53.5450
G01 X54.1699
G01 X54.6500 Y1.9284
G01 Z-0.2000 F60
G01 Y4.1207 F120
G01 X54.1707 Y4.6000
G01 X54.1300
G01 X53.5043
G01 X53.0250 Y4.1207
G01 Y1.9284
G01 X53.5051 Y1.4750
G01 X53.5450
G01 X54.1699
G01 X54.6500 Y1.9284
G00 Z2.0000


;No. 3: Part 49
G00 X55.5750 Y4.1199 Z2.0000
G00 Z0.5000
G01 Z-0.1000 F60
G01 Y1.9293 F120
G01 X56.0293 Y1.4750
G01 X56.0700
G01 X56.7207
G01 X57.1750 Y1.9293
G01 Y4.1199
G01 X56.7216 Y4.6000
G01 X56.6800
G01 X56.0284
G01 X55.5750 Y4.1199
G01 Z-0.2000 F60
G01 Y1.9293 F120
G01 X56.0293 Y1.4750
G01 X56.0700
G01 X56.7207
G01 X57.1750 Y1.9293
G01 Y4.1199
G01 X56.7216 Y4.6000
G01 X56.6800
G01 X56.0284
G01 X55.5750 Y4.1199
G00 Z2.0000


;No. 4: Part 47
G00 X50.7500 Y15.7331 Z2.0000
G00 Z0.5000
G01 Z-0.1000 F60
G01 Y4.4050 F120
G01 X50.4750 Y4.1207
G01 Y1.9284
G01 X50.9551 Y1.4750
G01 X50.9950
G01 X51.6199
G01 X52.1000 Y1.9284
G01 Y4.1193
G01 X51.8500 Y4.3943
G01 Y15.4950
G01 X52.5707 Y16.2250
G01 X52.9951
G01 X53.6250 Y16.8287
G01 Y19.7213
G01 X52.9951 Y20.3250
G01 X52.1293
G01 X51.5250 Y19.7207
G01 Y16.8293
G01 X51.5821 Y16.7722
G01 X50.9114 Y16.1322
G01 X50.8000 Y15.9957
G01 Y15.9368
G01 X50.7750 Y15.8868
G01 Y15.8081
G01 X50.7500 Y15.7331
G01 Z-0.2000 F60
G01 Y4.4050 F120
G01 X50.4750 Y4.1207
G01 Y1.9284
G01 X50.9551 Y1.4750
G01 X50.9950
G01 X51.6199
G01 X52.1000 Y1.9284
G01 Y4.1193
G01 X51.8500 Y4.3943
G01 Y15.4950
G01 X52.5707 Y16.2250
G01 X52.9951
G01 X53.6250 Y16.8287
G01 Y19.7213
G01 X52.9951 Y20.3250
G01 X52.1293
G01 X51.5250 Y19.7207
G01 Y16.8293
G01 X51.5821 Y16.7722
G01 X50.9114 Y16.1322
G01 X50.8000 Y15.9957
G01 Y15.9368
G01 X50.7750 Y15.8868
G01 Y15.8081
G01 X50.7500 Y15.7331
G00 Z2.0000


;No. 5: Part 37
G00 X50.6250 Y55.2801 Z2.0000
G00 Z0.5000
G01 Z-0.1000 F60
G01 Y57.4707 F120
G01 X50.1707 Y57.9250
G01 X49.4793
G01 X49.0250 Y57.4707
G01 Y55.2801
G01 X49.4784 Y54.8000
G01 X50.1716
G01 X50.6250 Y55.2801
G01 Z-0.2000 F60
G01 Y57.4707 F120
G01 X50.1707 Y57.9250
G01 X49.4793
G01 X49.0250 Y57.4707
G01 Y55.2801
G01 X49.4784 Y54.8000
G01 X50.1716
G01 X50.6250 Y55.2801
G00 Z2.0000


;No. 6: Part 36
G00 X53.1750 Y55.2793 Z2.0000
G00 Z0.5000
G01 Z-0.1000 F60
G01 Y57.4716 F120
G01 X52.6949 Y57.9250
G01 X52.0301
G01 X51.5500 Y57.4716
G01 Y55.2793
G01 X52.0293 Y54.8000
G01 X52.6957
G01 X53.1750 Y55.2793
G01 Z-0.2000 F60
G01 Y57.4716 F120
G01 X52.6949 Y57.9250
G01 X52.0301
G01 X51.5500 Y57.4716
G01 Y55.2793
G01 X52.0293 Y54.8000
G01 X52.6957
G01 X53.1750 Y55.2793
G00 Z2.0000


;No. 7: Part 35
G00 X55.7250 Y55.2793 Z2.0000
G00 Z0.5000
G01 Z-0.1000 F60
G01 Y57.4716 F120
G01 X55.2449 Y57.9250
G01 X54.5801
G01 X54.1000 Y57.4716
G01 Y55.2793
G01 X54.5793 Y54.8000
G01 X55.2457
G01 X55.7250 Y55.2793
G01 Z-0.2000 F60
G01 Y57.4716 F120
G01 X55.2449 Y57.9250
G01 X54.5801
G01 X54.1000 Y57.4716
G01 Y55.2793
G01 X54.5793 Y54.8000
G01 X55.2457
G01 X55.7250 Y55.2793
G00 Z2.0000


;No. 8: Part 34
G00 X68.7207 Y55.5750 Z2.0000
G00 Z0.5000
G01 Z-0.1000 F60
G01 X66.8207 F120
G01 X66.7997 Y55.5961
G01 X66.5300 Y55.6500
G01 X65.2669
G01 X65.1919 Y55.6250
G01 X65.1132
G01 X65.0632 Y55.6000
G01 X65.0043
G01 X64.8681 Y55.4889
G01 X53.8250 Y44.4457
G01 X48.0250 Y50.2457
G01 Y55.1062
G01 X48.0041 Y55.1897
G01 X48.1000 Y55.2793
G01 Y57.4716
G01 X47.6199 Y57.9250
G01 X46.9551
G01 X46.4750 Y57.4716
G01 Y55.2793
G01 X46.9250 Y54.8293
G01 Y50.0169
G01 X46.9500 Y49.9419
G01 Y49.8882
G01 X47.0063 Y49.7480
G01 X47.0589 Y49.6954
G01 X47.0839 Y49.6454
G01 X58.3734 Y38.3808
G01 X58.3750 Y1.0600
G01 X42.6250 Y1.0500
G01 X41.8434 Y1.8273
G01 X41.9500 Y1.9293
G01 Y4.1207
G01 X41.4707 Y4.6000
G01 X40.8043
G01 X40.3250 Y4.1207
G01 Y1.9293
G01 X40.5942 Y1.6601
G01 X40.6000 Y1.6120
G01 X40.7348 Y1.3694
G01 X42.1293 Y0.0000
G01 X42.2132
G01 X42.2632 Y-0.0250
G01 X42.3169
G01 X42.3919 Y-0.0500
G01 X58.9300
G01 X59.2015 Y0.0043
G01 X59.3948 Y0.2252
G01 X59.4750 Y0.4927
G01 Y38.6118
G01 X59.4500 Y38.6618
G01 Y38.7368
G01 X59.3937 Y38.8770
G01 X59.3411 Y38.9296
G01 X59.3161 Y38.9796
G01 X54.6207 Y43.6750
G01 X65.4889 Y54.5432
G01 X66.0550 Y54.5500
G01 X66.0500 Y54.4284
G01 X66.5301 Y53.9750
G01 X68.7199
G01 X69.2000 Y54.4284
G01 Y55.0957
G01 X68.7207 Y55.5750
G01 Z-0.2000 F60
G01 X66.8207 F120
G01 X66.7997 Y55.5961
G01 X66.5300 Y55.6500
G01 X65.2669
G01 X65.1919 Y55.6250
G01 X65.1132
G01 X65.0632 Y55.6000
G01 X65.0043
G01 X64.8681 Y55.4889
G01 X53.8250 Y44.4457
G01 X48.0250 Y50.2457
G01 Y55.1062
G01 X48.0041 Y55.1897
G01 X48.1000 Y55.2793
G01 Y57.4716
G01 X47.6199 Y57.9250
G01 X46.9551
G01 X46.4750 Y57.4716
G01 Y55.2793
G01 X46.9250 Y54.8293
G01 Y50.0169
G01 X46.9500 Y49.9419
G01 Y49.8882
G01 X47.0063 Y49.7480
G01 X47.0589 Y49.6954
G01 X47.0839 Y49.6454
G01 X58.3734 Y38.3808
G01 X58.3750 Y1.0600
G01 X42.6250 Y1.0500
G01 X41.8434 Y1.8273
G01 X41.9500 Y1.9293
G01 Y4.1207
G01 X41.4707 Y4.6000
G01 X40.8043
G01 X40.3250 Y4.1207
G01 Y1.9293
G01 X40.5942 Y1.6601
G01 X40.6000 Y1.6120
G01 X40.7348 Y1.3694
G01 X42.1293 Y0.0000
G01 X42.2132
G01 X42.2632 Y-0.0250
G01 X42.3169
G01 X42.3919 Y-0.0500
G01 X58.9300
G01 X59.2015 Y0.0043
G01 X59.3948 Y0.2252
G01 X59.4750 Y0.4927
G01 Y38.6118
G01 X59.4500 Y38.6618
G01 Y38.7368
G01 X59.3937 Y38.8770
G01 X59.3411 Y38.9296
G01 X59.3161 Y38.9796
G01 X54.6207 Y43.6750
G01 X65.4889 Y54.5432
G01 X66.0550 Y54.5500
G01 X66.0500 Y54.4284
G01 X66.5301 Y53.9750
G01 X68.7199
G01 X69.2000 Y54.4284
G01 Y55.0957
G01 X68.7207 Y55.5750
G00 Z2.0000


;No. 9: Part 33
G00 X68.7207 Y58.1250 Z2.0000
G00 Z0.5000
G01 Z-0.1000 F60
G01 X66.7823 F120
G01 X66.5323 Y58.2000
G01 X59.1450
G01 X58.0296 Y59.3161
G01 X57.9796 Y59.3411
G01 X57.9270 Y59.3937
G01 X57.7868 Y59.4500
G01 X57.7118
G01 X57.6618 Y59.4750
G01 X46.2169
G01 X46.1419 Y59.4500
G01 X46.0632
G01 X45.9454 Y59.3911
G01 X45.8980 Y59.3437
G01 X45.8227 Y59.3186
G01 X44.5602 Y58.0308
G01 X44.4954 Y57.9228
G01 X44.4051 Y57.9250
G01 X43.9250 Y57.4716
G01 Y55.2793
G01 X44.4043 Y54.8000
G01 X45.0707
G01 X45.5500 Y55.2793
G01 X45.5528 Y57.4821
G01 X46.4437 Y58.3730
G01 X57.4250 Y58.3750
G01 X58.5179 Y57.2613
G01 X58.6543 Y57.1500
G01 X58.7132
G01 X58.7632 Y57.1250
G01 X58.8419
G01 X58.9169 Y57.1000
G01 X66.0450
G01 X66.0500 Y56.9793
G01 X66.5293 Y56.5000
G01 X68.7207
G01 X69.2000 Y56.9793
G01 Y57.6457
G01 X68.7207 Y58.1250
G01 Z-0.2000 F60
G01 X66.7823 F120
G01 X66.5323 Y58.2000
G01 X59.1450
G01 X58.0296 Y59.3161
G01 X57.9796 Y59.3411
G01 X57.9270 Y59.3937
G01 X57.7868 Y59.4500
G01 X57.7118
G01 X57.6618 Y59.4750
G01 X46.2169
G01 X46.1419 Y59.4500
G01 X46.0632
G01 X45.9454 Y59.3911
G01 X45.8980 Y59.3437
G01 X45.8227 Y59.3186
G01 X44.5602 Y58.0308
G01 X44.4954 Y57.9228
G01 X44.4051 Y57.9250
G01 X43.9250 Y57.4716
G01 Y55.2793
G01 X44.4043 Y54.8000
G01 X45.0707
G01 X45.5500 Y55.2793
G01 X45.5528 Y57.4821
G01 X46.4437 Y58.3730
G01 X57.4250 Y58.3750
G01 X58.5179 Y57.2613
G01 X58.6543 Y57.1500
G01 X58.7132
G01 X58.7632 Y57.1250
G01 X58.8419
G01 X58.9169 Y57.1000
G01 X66.0450
G01 X66.0500 Y56.9793
G01 X66.5293 Y56.5000
G01 X68.7207
G01 X69.2000 Y56.9793
G01 Y57.6457
G01 X68.7207 Y58.1250
G00 Z2.0000


;No. 10: Part 32
G00 X68.7199 Y60.6500 Z2.0000
G00 Z0.5000
G01 Z-0.1000 F60
G01 X66.8207 F120
G01 X66.7997 Y60.6711
G01 X66.5300 Y60.7250
G01 X59.1450
G01 X57.9207 Y61.9500
G01 X57.8368
G01 X57.7868 Y61.9750
G01 X57.7118
G01 X57.6618 Y62.0000
G01 X46.2169
G01 X46.1419 Y61.9750
G01 X46.0632
G01 X46.0132 Y61.9500
G01 X45.9543
G01 X45.8181 Y61.8389
G01 X43.4543 Y59.4750
G01 X42.3927
G01 X42.1236 Y59.3943
G01 X41.9307 Y59.2014
G01 X41.8500 Y58.9323
G01 Y57.9050
G01 X41.4000 Y57.4716
G01 Y55.2793
G01 X41.8793 Y54.8000
G01 X42.5457
G01 X43.0250 Y55.2793
G01 Y57.4200
G01 X42.9861 Y57.5027
G01 X42.9500 Y57.5400
G01 Y58.3800
G01 X43.8207 Y58.3750
G01 X43.8707 Y58.4250
G01 X43.9457
G01 X44.0046 Y58.4839
G01 X44.0546 Y58.5089
G01 X46.4457 Y60.9000
G01 X57.4250
G01 X58.5227 Y59.7814
G01 X58.5980 Y59.7563
G01 X58.6454 Y59.7089
G01 X58.7632 Y59.6500
G01 X58.8419
G01 X58.9169 Y59.6250
G01 X66.0450
G01 X66.0500 Y59.5034
G01 X66.5301 Y59.0500
G01 X68.7199
G01 X69.2000 Y59.5034
G01 Y60.1966
G01 X68.7199 Y60.6500
G01 Z-0.2000 F60
G01 X66.8207 F120
G01 X66.7997 Y60.6711
G01 X66.5300 Y60.7250
G01 X59.1450
G01 X57.9207 Y61.9500
G01 X57.8368
G01 X57.7868 Y61.9750
G01 X57.7118
G01 X57.6618 Y62.0000
G01 X46.2169
G01 X46.1419 Y61.9750
G01 X46.0632
G01 X46.0132 Y61.9500
G01 X45.9543
G01 X45.8181 Y61.8389
G01 X43.4543 Y59.4750
G01 X42.3927
G01 X42.1236 Y59.3943
G01 X41.9307 Y59.2014
G01 X41.8500 Y58.9323
G01 Y57.9050
G01 X41.4000 Y57.4716
G01 Y55.2793
G01 X41.8793 Y54.8000
G01 X42.5457
G01 X43.0250 Y55.2793
G01 Y57.4200
G01 X42.9861 Y57.5027
G01 X42.9500 Y57.5400
G01 Y58.3800
G01 X43.8207 Y58.3750
G01 X43.8707 Y58.4250
G01 X43.9457
G01 X44.0046 Y58.4839
G01 X44.0546 Y58.5089
G01 X46.4457 Y60.9000
G01 X57.4250
G01 X58.5227 Y59.7814
G01 X58.5980 Y59.7563
G01 X58.6454 Y59.7089
G01 X58.7632 Y59.6500
G01 X58.8419
G01 X58.9169 Y59.6250
G01 X66.0450
G01 X66.0500 Y59.5034
G01 X66.5301 Y59.0500
G01 X68.7199
G01 X69.2000 Y59.5034
G01 Y60.1966
G01 X68.7199 Y60.6500
G00 Z2.0000


;No. 11: Part 31
G00 X66.5293 Y65.7500 Z2.0000
G00 Z0.5000
G01 Z-0.1000 F60
G01 X66.0500 Y65.2707 F120
G01 Y64.6043
G01 X66.5293 Y64.1250
G01 X68.7207
G01 X69.2000 Y64.6043
G01 Y65.2707
G01 X68.7207 Y65.7500
G01 X66.5293
G01 Z-0.2000 F60
G01 X66.0500 Y65.2707 F120
G01 Y64.6043
G01 X66.5293 Y64.1250
G01 X68.7207
G01 X69.2000 Y64.6043
G01 Y65.2707
G01 X68.7207 Y65.7500
G01 X66.5293
G00 Z2.0000


;No. 12: Part 30
G00 X49.2250 Y70.5301 Z2.0000
G00 Z0.5000
G01 Z-0.1000 F60
G01 X49.6784 Y70.0500 F120
G01 X50.3716
G01 X50.8250 Y70.5301
G01 Y72.7207
G01 X50.3707 Y73.1750
G01 X49.6793
G01 X49.2250 Y72.7207
G01 Y70.5301
G01 Z-0.2000 F60
G01 X49.6784 Y70.0500 F120
G01 X50.3716
G01 X50.8250 Y70.5301
G01 Y72.7207
G01 X50.3707 Y73.1750
G01 X49.6793
G01 X49.2250 Y72.7207
G01 Y70.5301
G00 Z2.0000


;No. 13: Part 29
G00 X46.6750 Y70.5293 Z2.0000
G00 Z0.5000
G01 Z-0.1000 F60
G01 X47.1543 Y70.0500 F120
G01 X47.8207
G01 X48.3000 Y70.5293
G01 Y72.7207
G01 X48.0308 Y72.9899
G01 X48.0250 Y73.0380
G01 X47.8902 Y73.2805
G01 X45.3295 Y75.8161
G01 X45.2796 Y75.8411
G01 X45.2270 Y75.8937
G01 X45.0868 Y75.9500
G01 X45.0118
G01 X44.9618 Y75.9750
G01 X16.9927
G01 X16.7236 Y75.8943
G01 X16.5307 Y75.7014
G01 X16.4500 Y75.4323
G01 Y63.0250
G01 X5.2681 Y55.5638
G03 X5.0512 Y55.2360 I0.2328 J-0.3897
G01 X5.0250 Y55.1050
G01 Y25.8919
G01 X5.0787 Y25.6808
G01 X5.1839 Y25.5204
G01 X30.7043 Y0.0000
G01 X30.7882
G01 X30.8382 Y-0.0250
G01 X30.8919
G01 X30.9669 Y-0.0500
G01 X37.3331
G01 X37.4081 Y-0.0250
G01 X37.4618
G01 X37.5118 Y0.0000
G01 X37.5957
G01 X38.9902 Y1.3694
G01 X39.1250 Y1.6120
G01 X39.1386 Y1.6679
G01 X39.4000 Y1.9293
G01 Y4.1193
G01 X39.1500 Y4.3943
G01 Y6.1750
G01 X39.6500 Y6.6793
G01 Y9.5457
G01 X39.0207 Y10.1750
G01 X38.1537
G01 X37.5500 Y9.5451
G01 Y6.6793
G01 X38.0455 Y6.1838
G01 X38.0500 Y6.1600
G01 Y4.4000
G01 X37.7750 Y4.1207
G01 Y1.9293
G01 X37.8722 Y1.8179
G01 X37.1085 Y1.0543
G01 X37.0850 Y1.0500
G01 X31.2050
G01 X6.1250 Y26.1207
G01 Y54.8200
G01 X17.3098 Y62.2631
G01 X17.3857 Y62.3643
G01 X17.4600 Y62.4200
G01 X17.5000 Y62.4938
G01 X17.5500 Y62.7200
G01 Y74.8750
G01 X44.7200
G01 X46.7794 Y72.8249
G01 X46.6750 Y72.7207
G01 Y70.5293
G01 Z-0.2000 F60
G01 X47.1543 Y70.0500 F120
G01 X47.8207
G01 X48.3000 Y70.5293
G01 Y72.7207
G01 X48.0308 Y72.9899
G01 X48.0250 Y73.0380
G01 X47.8902 Y73.2805
G01 X45.3295 Y75.8161
G01 X45.2796 Y75.8411
G01 X45.2270 Y75.8937
G01 X45.0868 Y75.9500
G01 X45.0118
G01 X44.9618 Y75.9750
G01 X16.9927
G01 X16.7236 Y75.8943
G01 X16.5307 Y75.7014
G01 X16.4500 Y75.4323
G01 Y63.0250
G01 X5.2681 Y55.5638
G03 X5.0512 Y55.2360 I0.2328 J-0.3897
G01 X5.0250 Y55.1050
G01 Y25.8919
G01 X5.0787 Y25.6808
G01 X5.1839 Y25.5204
G01 X30.7043 Y0.0000
G01 X30.7882
G01 X30.8382 Y-0.0250
G01 X30.8919
G01 X30.9669 Y-0.0500
G01 X37.3331
G01 X37.4081 Y-0.0250
G01 X37.4618
G01 X37.5118 Y0.0000
G01 X37.5957
G01 X38.9902 Y1.3694
G01 X39.1250 Y1.6120
G01 X39.1386 Y1.6679
G01 X39.4000 Y1.9293
G01 Y4.1193
G01 X39.1500 Y4.3943
G01 Y6.1750
G01 X39.6500 Y6.6793
G01 Y9.5457
G01 X39.0207 Y10.1750
G01 X38.1537
G01 X37.5500 Y9.5451
G01 Y6.6793
G01 X38.0455 Y6.1838
G01 X38.0500 Y6.1600
G01 Y4.4000
G01 X37.7750 Y4.1207
G01 Y1.9293
G01 X37.8722 Y1.8179
G01 X37.1085 Y1.0543
G01 X37.0850 Y1.0500
G01 X31.2050
G01 X6.1250 Y26.1207
G01 Y54.8200
G01 X17.3098 Y62.2631
G01 X17.3857 Y62.3643
G01 X17.4600 Y62.4200
G01 X17.5000 Y62.4938
G01 X17.5500 Y62.7200
G01 Y74.8750
G01 X44.7200
G01 X46.7794 Y72.8249
G01 X46.6750 Y72.7207
G01 Y70.5293
G00 Z2.0000


;No. 14: Part 28
G00 X44.1250 Y70.5293 Z2.0000
G00 Z0.5000
G01 Z-0.1000 F60
G01 X44.6043 Y70.0500 F120
G01 X45.2707
G01 X45.7500 Y70.5293
G01 Y72.7216
G01 X45.2699 Y73.1750
G01 X44.6051
G01 X44.1250 Y72.7216
G01 Y70.5293
G01 Z-0.2000 F60
G01 X44.6043 Y70.0500 F120
G01 X45.2707
G01 X45.7500 Y70.5293
G01 Y72.7216
G01 X45.2699 Y73.1750
G01 X44.6051
G01 X44.1250 Y72.7216
G01 Y70.5293
G00 Z2.0000


;No. 15: Part 27
G00 X41.6000 Y72.7216 Z2.0000
G00 Z0.5000
G01 Z-0.1000 F60
G01 Y70.5293 F120
G01 X42.0793 Y70.0500
G01 X42.7457
G01 X43.2250 Y70.5293
G01 Y72.7216
G01 X42.7449 Y73.1750
G01 X42.0801
G01 X41.6000 Y72.7216
G01 Z-0.2000 F60
G01 Y70.5293 F120
G01 X42.0793 Y70.0500
G01 X42.7457
G01 X43.2250 Y70.5293
G01 Y72.7216
G01 X42.7449 Y73.1750
G01 X42.0801
G01 X41.6000 Y72.7216
G00 Z2.0000


;No. 16: Part 26
G00 X39.0500 Y72.7216 Z2.0000
G00 Z0.5000
G01 Z-0.1000 F60
G01 Y70.5293 F120
G01 X39.5293 Y70.0500
G01 X40.1957
G01 X40.6750 Y70.5293
G01 Y72.7216
G01 X40.1949 Y73.1750
G01 X39.5301
G01 X39.0500 Y72.7216
G01 Z-0.2000 F60
G01 Y70.5293 F120
G01 X39.5293 Y70.0500
G01 X40.1957
G01 X40.6750 Y70.5293
G01 Y72.7216
G01 X40.1949 Y73.1750
G01 X39.5301
G01 X39.0500 Y72.7216
G00 Z2.0000


;No. 17: Part 25
G00 X36.5250 Y72.7207 Z2.0000
G00 Z0.5000
G01 Z-0.1000 F60
G01 Y70.5301 F120
G01 X36.9784 Y70.0500
G01 X37.6716
G01 X38.1250 Y70.5301
G01 Y72.7207
G01 X37.6707 Y73.1750
G01 X36.9793
G01 X36.5250 Y72.7207
G01 Z-0.2000 F60
G01 Y70.5301 F120
G01 X36.9784 Y70.0500
G01 X37.6716
G01 X38.1250 Y70.5301
G01 Y72.7207
G01 X37.6707 Y73.1750
G01 X36.9793
G01 X36.5250 Y72.7207
G00 Z2.0000


;No. 18: Part 24
G00 X33.9750 Y72.7216 Z2.0000
G00 Z0.5000
G01 Z-0.1000 F60
G01 Y70.5293 F120
G01 X34.4543 Y70.0500
G01 X35.1207
G01 X35.6000 Y70.5293
G01 Y72.7216
G01 X35.1199 Y73.1750
G01 X34.4551
G01 X33.9750 Y72.7216
G01 Z-0.2000 F60
G01 Y70.5293 F120
G01 X34.4543 Y70.0500
G01 X35.1207
G01 X35.6000 Y70.5293
G01 Y72.7216
G01 X35.1199 Y73.1750
G01 X34.4551
G01 X33.9750 Y72.7216
G00 Z2.0000


;No. 19: Part 23
G00 X31.4250 Y72.7216 Z2.0000
G00 Z0.5000
G01 Z-0.1000 F60
G01 Y70.5293 F120
G01 X31.9043 Y70.0500
G01 X32.5707
G01 X33.0500 Y70.5293
G01 Y72.7216
G01 X32.5699 Y73.1750
G01 X31.9051
G01 X31.4250 Y72.7216
G01 Z-0.2000 F60
G01 Y70.5293 F120
G01 X31.9043 Y70.0500
G01 X32.5707
G01 X33.0500 Y70.5293
G01 Y72.7216
G01 X32.5699 Y73.1750
G01 X31.9051
G01 X31.4250 Y72.7216
G00 Z2.0000


;No. 20: Part 22
G00 X28.9000 Y72.7216 Z2.0000
G00 Z0.5000
G01 Z-0.1000 F60
G01 Y70.5293 F120
G01 X28.9972 Y70.4179
G01 X25.5111 Y66.9319
G01 X25.3918 Y66.7529
G01 X25.0207 Y67.1250
G01 X24.2293
G01 X23.6750 Y66.5707
G01 Y63.9793
G01 X24.2293 Y63.4250
G01 X25.0207
G01 X25.5750 Y63.9793
G01 Y64.6634
G01 X26.3412 Y66.2205
G01 X30.0903 Y69.9696
G01 X30.2250 Y70.2120
G01 X30.2383 Y70.2652
G01 X30.5250 Y70.5280
G01 Y72.7216
G01 X30.0449 Y73.1750
G01 X29.3801
G01 X28.9000 Y72.7216
G01 Z-0.2000 F60
G01 Y70.5293 F120
G01 X28.9972 Y70.4179
G01 X25.5111 Y66.9319
G01 X25.3918 Y66.7529
G01 X25.0207 Y67.1250
G01 X24.2293
G01 X23.6750 Y66.5707
G01 Y63.9793
G01 X24.2293 Y63.4250
G01 X25.0207
G01 X25.5750 Y63.9793
G01 Y64.6634
G01 X26.3412 Y66.2205
G01 X30.0903 Y69.9696
G01 X30.2250 Y70.2120
G01 X30.2383 Y70.2652
G01 X30.5250 Y70.5280
G01 Y72.7216
G01 X30.0449 Y73.1750
G01 X29.3801
G01 X28.9000 Y72.7216
G00 Z2.0000


;No. 21: Part 21
G00 X26.3500 Y72.7216 Z2.0000
G00 Z0.5000
G01 Z-0.1000 F60
G01 Y70.5293 F120
G01 X26.8293 Y70.0500
G01 X27.4957
G01 X27.9750 Y70.5293
G01 Y72.7216
G01 X27.4949 Y73.1750
G01 X26.8301
G01 X26.3500 Y72.7216
G01 Z-0.2000 F60
G01 Y70.5293 F120
G01 X26.8293 Y70.0500
G01 X27.4957
G01 X27.9750 Y70.5293
G01 Y72.7216
G01 X27.4949 Y73.1750
G01 X26.8301
G01 X26.3500 Y72.7216
G00 Z2.0000


;No. 22: Part 20
G00 X23.8250 Y72.7207 Z2.0000
G00 Z0.5000
G01 Z-0.1000 F60
G01 Y70.5301 F120
G01 X24.2784 Y70.0500
G01 X24.9716
G01 X25.4250 Y70.5301
G01 Y72.7207
G01 X24.9707 Y73.1750
G01 X24.2793
G01 X23.8250 Y72.7207
G01 Z-0.2000 F60
G01 Y70.5301 F120
G01 X24.2784 Y70.0500
G01 X24.9716
G01 X25.4250 Y70.5301
G01 Y72.7207
G01 X24.9707 Y73.1750
G01 X24.2793
G01 X23.8250 Y72.7207
G00 Z2.0000


;No. 23: Part 19
G00 X21.3000 Y72.7216 Z2.0000
G00 Z0.5000
G01 Z-0.1000 F60
G01 Y70.5293 F120
G01 X21.7793 Y70.0500
G01 X22.4457
G01 X22.9250 Y70.5293
G01 Y72.7216
G01 X22.4449 Y73.1750
G01 X21.7801
G01 X21.3000 Y72.7216
G01 Z-0.2000 F60
G01 Y70.5293 F120
G01 X21.7793 Y70.0500
G01 X22.4457
G01 X22.9250 Y70.5293
G01 Y72.7216
G01 X22.4449 Y73.1750
G01 X21.7801
G01 X21.3000 Y72.7216
G00 Z2.0000


;No. 24: Part 18
G00 X18.7500 Y72.7216 Z2.0000
G00 Z0.5000
G01 Z-0.1000 F60
G01 Y70.5307 F120
G01 X19.0000 Y70.2557
G01 Y61.7550
G01 X7.7889 Y54.2610
G01 X7.7381 Y54.1849
G01 X7.6650 Y54.1300
G01 X7.6250 Y54.0550
G01 X7.5750 Y53.8312
G01 Y28.2793
G01 X7.6179 Y28.2364
G01 X7.6250 Y28.1543
G01 X7.6839 Y28.0954
G01 X7.7089 Y28.0454
G01 X32.7000 Y3.0793
G01 Y1.9284
G01 X33.1801 Y1.4750
G01 X33.2200
G01 X33.8449
G01 X34.3250 Y1.9284
G01 Y4.1207
G01 X33.8457 Y4.6000
G01 X33.1793
G01 X32.9430 Y4.3778
G01 X8.6750 Y28.6707
G01 Y53.5233
G01 X19.8569 Y61.0112
G01 X20.0250 Y61.1793
G01 X20.0530 Y61.2348
G01 X20.1000 Y61.4438
G01 Y70.2500
G01 X20.3750 Y70.5293
G01 Y72.7216
G01 X19.8949 Y73.1750
G01 X19.2301
G01 X18.7500 Y72.7216
G01 Z-0.2000 F60
G01 Y70.5307 F120
G01 X19.0000 Y70.2557
G01 Y61.7550
G01 X7.7889 Y54.2610
G01 X7.7381 Y54.1849
G01 X7.6650 Y54.1300
G01 X7.6250 Y54.0550
G01 X7.5750 Y53.8312
G01 Y28.2793
G01 X7.6179 Y28.2364
G01 X7.6250 Y28.1543
G01 X7.6839 Y28.0954
G01 X7.7089 Y28.0454
G01 X32.7000 Y3.0793
G01 Y1.9284
G01 X33.1801 Y1.4750
G01 X33.2200
G01 X33.8449
G01 X34.3250 Y1.9284
G01 Y4.1207
G01 X33.8457 Y4.6000
G01 X33.1793
G01 X32.9430 Y4.3778
G01 X8.6750 Y28.6707
G01 Y53.5233
G01 X19.8569 Y61.0112
G01 X20.0250 Y61.1793
G01 X20.0530 Y61.2348
G01 X20.1000 Y61.4438
G01 Y70.2500
G01 X20.3750 Y70.5293
G01 Y72.7216
G01 X19.8949 Y73.1750
G01 X19.2301
G01 X18.7500 Y72.7216
G00 Z2.0000


;No. 25: Part 7
G00 X23.8250 Y82.8699 Z2.0000
G00 Z0.5000
G01 Z-0.1000 F60
G01 Y80.6801 F120
G01 X24.2784 Y80.2000
G01 X24.9716
G01 X25.4250 Y80.6801
G01 Y82.8699
G01 X24.9716 Y83.3500
G01 X24.2784
G01 X23.8250 Y82.8699
G01 Z-0.2000 F60
G01 Y80.6801 F120
G01 X24.2784 Y80.2000
G01 X24.9716
G01 X25.4250 Y80.6801
G01 Y82.8699
G01 X24.9716 Y83.3500
G01 X24.2784
G01 X23.8250 Y82.8699
G00 Z2.0000


;No. 26: Part 8
G00 X26.3500 Y82.8707 Z2.0000
G00 Z0.5000
G01 Z-0.1000 F60
G01 Y80.6779 F120
G01 X26.6179 Y80.4343
G01 X26.6250 Y80.4100
G01 Y79.2200
G01 X26.6793 Y78.9485
G01 X26.9002 Y78.7552
G01 X27.1677 Y78.6750
G01 X58.3750
G01 Y67.0750
G01 X39.8700
G01 X39.6003 Y67.0211
G01 X39.3789 Y66.7997
G01 X39.3250 Y66.5300
G01 Y57.9250
G01 X38.8500 Y57.4716
G01 Y55.2793
G01 X39.3293 Y54.8000
G01 X39.9957
G01 X40.4750 Y55.2793
G01 Y57.4200
G01 X40.4390 Y57.5020
G01 X40.3910 Y57.5380
G01 X40.4250 Y57.6404
G01 Y65.9700
G01 X58.9323 Y65.9750
G01 X59.2014 Y66.0557
G01 X59.3943 Y66.2486
G01 X59.4750 Y66.5177
G01 Y79.2323
G01 X59.3948 Y79.4998
G01 X59.2015 Y79.7207
G01 X58.9300 Y79.7750
G01 X27.7250
G01 Y80.4250
G01 X27.9750 Y80.6793
G01 Y82.8707
G01 X27.4957 Y83.3500
G01 X26.8293
G01 X26.3500 Y82.8707
G01 Z-0.2000 F60
G01 Y80.6779 F120
G01 X26.6179 Y80.4343
G01 X26.6250 Y80.4100
G01 Y79.2200
G01 X26.6793 Y78.9485
G01 X26.9002 Y78.7552
G01 X27.1677 Y78.6750
G01 X58.3750
G01 Y67.0750
G01 X39.8700
G01 X39.6003 Y67.0211
G01 X39.3789 Y66.7997
G01 X39.3250 Y66.5300
G01 Y57.9250
G01 X38.8500 Y57.4716
G01 Y55.2793
G01 X39.3293 Y54.8000
G01 X39.9957
G01 X40.4750 Y55.2793
G01 Y57.4200
G01 X40.4390 Y57.5020
G01 X40.3910 Y57.5380
G01 X40.4250 Y57.6404
G01 Y65.9700
G01 X58.9323 Y65.9750
G01 X59.2014 Y66.0557
G01 X59.3943 Y66.2486
G01 X59.4750 Y66.5177
G01 Y79.2323
G01 X59.3948 Y79.4998
G01 X59.2015 Y79.7207
G01 X58.9300 Y79.7750
G01 X27.7250
G01 Y80.4250
G01 X27.9750 Y80.6793
G01 Y82.8707
G01 X27.4957 Y83.3500
G01 X26.8293
G01 X26.3500 Y82.8707
G00 Z2.0000


;No. 27: Part 9
G00 X28.9000 Y82.8707 Z2.0000
G00 Z0.5000
G01 Z-0.1000 F60
G01 Y80.6793 F120
G01 X29.3793 Y80.2000
G01 X30.0457
G01 X30.5250 Y80.6793
G01 Y82.8721
G01 X30.2571 Y83.1157
G01 X30.2500 Y83.1400
G01 Y87.5750
G01 X54.8800
G01 X60.9000 Y81.5543
G01 Y64.5550
G01 X44.3500 Y64.5500
G01 X44.1207 Y64.7750
G01 X43.2293
G01 X42.6250 Y64.1707
G01 Y61.2793
G01 X43.2293 Y60.6750
G01 X44.1207
G01 X44.7250 Y61.2793
G01 X44.7350 Y63.4500
G01 X61.4550
G01 X61.7247 Y63.5039
G01 X61.9461 Y63.7253
G01 X62.0000 Y63.9950
G01 Y81.7831
G01 X61.9750 Y81.8581
G01 Y81.9118
G01 X61.9500 Y81.9618
G01 Y82.0457
G01 X55.4796 Y88.5161
G01 X55.4296 Y88.5411
G01 X55.3770 Y88.5937
G01 X55.2368 Y88.6500
G01 X55.1831
G01 X55.1081 Y88.6750
G01 X29.6927
G03 X29.1500 Y88.1323 I0.0231 J-0.5657
G01 Y83.1250
G01 X28.9000 Y82.8707
G01 Z-0.2000 F60
G01 Y80.6793 F120
G01 X29.3793 Y80.2000
G01 X30.0457
G01 X30.5250 Y80.6793
G01 Y82.8721
G01 X30.2571 Y83.1157
G01 X30.2500 Y83.1400
G01 Y87.5750
G01 X54.8800
G01 X60.9000 Y81.5543
G01 Y64.5550
G01 X44.3500 Y64.5500
G01 X44.1207 Y64.7750
G01 X43.2293
G01 X42.6250 Y64.1707
G01 Y61.2793
G01 X43.2293 Y60.6750
G01 X44.1207
G01 X44.7250 Y61.2793
G01 X44.7350 Y63.4500
G01 X61.4550
G01 X61.7247 Y63.5039
G01 X61.9461 Y63.7253
G01 X62.0000 Y63.9950
G01 Y81.7831
G01 X61.9750 Y81.8581
G01 Y81.9118
G01 X61.9500 Y81.9618
G01 Y82.0457
G01 X55.4796 Y88.5161
G01 X55.4296 Y88.5411
G01 X55.3770 Y88.5937
G01 X55.2368 Y88.6500
G01 X55.1831
G01 X55.1081 Y88.6750
G01 X29.6927
G03 X29.1500 Y88.1323 I0.0231 J-0.5657
G01 Y83.1250
G01 X28.9000 Y82.8707
G00 Z2.0000


;No. 28: Part 10
G00 X31.4250 Y82.8721 Z2.0000
G00 Z0.5000
G01 Z-0.1000 F60
G01 Y80.6793 F120
G01 X31.9043 Y80.2000
G01 X32.5707
G01 X33.0500 Y80.6793
G01 Y82.8707
G01 X32.8000 Y83.1207
G01 Y84.0793
G01 X33.7457 Y85.0250
G01 X52.3250
G01 X53.8824 Y83.4957
G01 X52.5543 Y83.5000
G01 X52.0750 Y83.0207
G01 Y82.3534
G01 X52.5551 Y81.9000
G01 X54.7207
G01 X55.1750 Y82.3543
G01 Y82.5250
G01 X55.2380
G01 X55.4868 Y82.6632
G01 X55.6250 Y82.9120
G01 Y83.1880
G01 X55.4904 Y83.4303
G01 X52.9547 Y85.9910
G01 X52.9046 Y86.0161
G01 X52.8457 Y86.0750
G01 X52.7707
G01 X52.7207 Y86.1250
G01 X33.3543
G01 X33.3043 Y86.0750
G01 X33.2543
G01 X33.1980 Y86.0187
G01 X33.1227 Y85.9936
G01 X31.7500 Y84.5957
G01 Y84.5118
G01 X31.7250 Y84.4618
G01 Y84.3868
G01 X31.7000 Y84.3368
G01 Y83.1250
G01 X31.4250 Y82.8721
G01 Z-0.2000 F60
G01 Y80.6793 F120
G01 X31.9043 Y80.2000
G01 X32.5707
G01 X33.0500 Y80.6793
G01 Y82.8707
G01 X32.8000 Y83.1207
G01 Y84.0793
G01 X33.7457 Y85.0250
G01 X52.3250
G01 X53.8824 Y83.4957
G01 X52.5543 Y83.5000
G01 X52.0750 Y83.0207
G01 Y82.3534
G01 X52.5551 Y81.9000
G01 X54.7207
G01 X55.1750 Y82.3543
G01 Y82.5250
G01 X55.2380
G01 X55.4868 Y82.6632
G01 X55.6250 Y82.9120
G01 Y83.1880
G01 X55.4904 Y83.4303
G01 X52.9547 Y85.9910
G01 X52.9046 Y86.0161
G01 X52.8457 Y86.0750
G01 X52.7707
G01 X52.7207 Y86.1250
G01 X33.3543
G01 X33.3043 Y86.0750
G01 X33.2543
G01 X33.1980 Y86.0187
G01 X33.1227 Y85.9936
G01 X31.7500 Y84.5957
G01 Y84.5118
G01 X31.7250 Y84.4618
G01 Y84.3868
G01 X31.7000 Y84.3368
G01 Y83.1250
G01 X31.4250 Y82.8721
G00 Z2.0000


;No. 29: Part 11
G00 X33.9750 Y80.6793 Z2.0000
G00 Z0.5000
G01 Z-0.1000 F60
G01 X34.4543 Y80.2000 F120
G01 X35.1207
G01 X35.6000 Y80.6793
G01 Y82.8707
G01 X35.1207 Y83.3500
G01 X34.4543
G01 X33.9750 Y82.8707
G01 Y80.6793
G01 Z-0.2000 F60
G01 X34.4543 Y80.2000 F120
G01 X35.1207
G01 X35.6000 Y80.6793
G01 Y82.8707
G01 X35.1207 Y83.3500
G01 X34.4543
G01 X33.9750 Y82.8707
G01 Y80.6793
G00 Z2.0000


;No. 30: Part 12
G00 X36.5250 Y80.6801 Z2.0000
G00 Z0.5000
G01 Z-0.1000 F60
G01 X36.9784 Y80.2000 F120
G01 X37.6716
G01 X38.1250 Y80.6801
G01 Y82.8699
G01 X37.6716 Y83.3500
G01 X36.9784
G01 X36.5250 Y82.8699
G01 Y80.6801
G01 Z-0.2000 F60
G01 X36.9784 Y80.2000 F120
G01 X37.6716
G01 X38.1250 Y80.6801
G01 Y82.8699
G01 X37.6716 Y83.3500
G01 X36.9784
G01 X36.5250 Y82.8699
G01 Y80.6801
G00 Z2.0000


;No. 31: Part 13
G00 X39.0500 Y80.6793 Z2.0000
G00 Z0.5000
G01 Z-0.1000 F60
G01 X39.5293 Y80.2000 F120
G01 X40.1957
G01 X40.6750 Y80.6793
G01 Y82.8707
G01 X40.1957 Y83.3500
G01 X39.5293
G01 X39.0500 Y82.8707
G01 Y80.6793
G01 Z-0.2000 F60
G01 X39.5293 Y80.2000 F120
G01 X40.1957
G01 X40.6750 Y80.6793
G01 Y82.8707
G01 X40.1957 Y83.3500
G01 X39.5293
G01 X39.0500 Y82.8707
G01 Y80.6793
G00 Z2.0000


;No. 32: Part 14
G00 X41.6000 Y80.6793 Z2.0000
G00 Z0.5000
G01 Z-0.1000 F60
G01 X42.0793 Y80.2000 F120
G01 X42.7457
G01 X43.2250 Y80.6793
G01 Y82.8707
G01 X42.7457 Y83.3500
G01 X42.0793
G01 X41.6000 Y82.8707
G01 Y80.6793
G01 Z-0.2000 F60
G01 X42.0793 Y80.2000 F120
G01 X42.7457
G01 X43.2250 Y80.6793
G01 Y82.8707
G01 X42.7457 Y83.3500
G01 X42.0793
G01 X41.6000 Y82.8707
G01 Y80.6793
G00 Z2.0000


;No. 33: Part 15
G00 X44.1250 Y80.6793 Z2.0000
G00 Z0.5000
G01 Z-0.1000 F60
G01 X44.6043 Y80.2000 F120
G01 X45.2707
G01 X45.7500 Y80.6793
G01 Y82.8707
G01 X45.2707 Y83.3500
G01 X44.6043
G01 X44.1250 Y82.8707
G01 Y80.6793
G01 Z-0.2000 F60
G01 X44.6043 Y80.2000 F120
G01 X45.2707
G01 X45.7500 Y80.6793
G01 Y82.8707
G01 X45.2707 Y83.3500
G01 X44.6043
G01 X44.1250 Y82.8707
G01 Y80.6793
G00 Z2.0000


;No. 34: Part 16
G00 X46.6750 Y80.6793 Z2.0000
G00 Z0.5000
G01 Z-0.1000 F60
G01 X47.1543 Y80.2000 F120
G01 X47.8207
G01 X48.3000 Y80.6793
G01 Y82.8707
G01 X47.8207 Y83.3500
G01 X47.1543
G01 X46.6750 Y82.8707
G01 Y80.6793
G01 Z-0.2000 F60
G01 X47.1543 Y80.2000 F120
G01 X47.8207
G01 X48.3000 Y80.6793
G01 Y82.8707
G01 X47.8207 Y83.3500
G01 X47.1543
G01 X46.6750 Y82.8707
G01 Y80.6793
G00 Z2.0000


;No. 35: Part 17
G00 X49.2250 Y80.6801 Z2.0000
G00 Z0.5000
G01 Z-0.1000 F60
G01 X49.6784 Y80.2000 F120
G01 X50.3716
G01 X50.8250 Y80.6801
G01 Y82.8699
G01 X50.3716 Y83.3500
G01 X49.6784
G01 X49.2250 Y82.8699
G01 Y80.6801
G01 Z-0.2000 F60
G01 X49.6784 Y80.2000 F120
G01 X50.3716
G01 X50.8250 Y80.6801
G01 Y82.8699
G01 X50.3716 Y83.3500
G01 X49.6784
G01 X49.2250 Y82.8699
G01 Y80.6801
G00 Z2.0000


;No. 36: Part 38
G00 X37.9250 Y55.2801 Z2.0000
G00 Z0.5000
G01 Z-0.1000 F60
G01 Y57.4707 F120
G01 X37.8538 Y57.5419
G01 X37.8500 Y57.7880
G01 X37.7153 Y58.0304
G01 X36.6000 Y59.1457
G01 Y60.7793
G01 X37.1000 Y61.2793
G01 Y64.1707
G01 X36.4957 Y64.7750
G01 X35.6299
G01 X35.0000 Y64.1713
G01 Y61.2793
G01 X35.4955 Y60.7838
G01 X35.5000 Y58.9169
G01 X35.5250 Y58.8419
G01 Y58.7632
G01 X35.5839 Y58.6454
G01 X35.6313 Y58.5980
G01 X35.6564 Y58.5226
G01 X36.5255 Y57.6777
G01 X36.3250 Y57.4707
G01 Y55.2801
G01 X36.7784 Y54.8000
G01 X37.4716
G01 X37.9250 Y55.2801
G01 Z-0.2000 F60
G01 Y57.4707 F120
G01 X37.8538 Y57.5419
G01 X37.8500 Y57.7880
G01 X37.7153 Y58.0304
G01 X36.6000 Y59.1457
G01 Y60.7793
G01 X37.1000 Y61.2793
G01 Y64.1707
G01 X36.4957 Y64.7750
G01 X35.6299
G01 X35.0000 Y64.1713
G01 Y61.2793
G01 X35.4955 Y60.7838
G01 X35.5000 Y58.9169
G01 X35.5250 Y58.8419
G01 Y58.7632
G01 X35.5839 Y58.6454
G01 X35.6313 Y58.5980
G01 X35.6564 Y58.5226
G01 X36.5255 Y57.6777
G01 X36.3250 Y57.4707
G01 Y55.2801
G01 X36.7784 Y54.8000
G01 X37.4716
G01 X37.9250 Y55.2801
G00 Z2.0000


;No. 37: Part 39
G00 X35.4000 Y55.2793 Z2.0000
G00 Z0.5000
G01 Z-0.1000 F60
G01 Y57.4716 F120
G01 X34.9199 Y57.9250
G01 X34.2551
G01 X33.7750 Y57.4716
G01 Y55.2793
G01 X34.2543 Y54.8000
G01 X34.9207
G01 X35.4000 Y55.2793
G01 Z-0.2000 F60
G01 Y57.4716 F120
G01 X34.9199 Y57.9250
G01 X34.2551
G01 X33.7750 Y57.4716
G01 Y55.2793
G01 X34.2543 Y54.8000
G01 X34.9207
G01 X35.4000 Y55.2793
G00 Z2.0000


;No. 38: Part 40
G00 X32.8500 Y55.2793 Z2.0000
G00 Z0.5000
G01 Z-0.1000 F60
G01 Y57.4716 F120
G01 X32.3699 Y57.9250
G01 X31.7051
G01 X31.2250 Y57.4716
G01 Y55.2793
G01 X31.7043 Y54.8000
G01 X32.3707
G01 X32.8500 Y55.2793
G01 Z-0.2000 F60
G01 Y57.4716 F120
G01 X32.3699 Y57.9250
G01 X31.7051
G01 X31.2250 Y57.4716
G01 Y55.2793
G01 X31.7043 Y54.8000
G01 X32.3707
G01 X32.8500 Y55.2793
G00 Z2.0000


;No. 39: Part 41
G00 X30.3250 Y55.2793 Z2.0000
G00 Z0.5000
G01 Z-0.1000 F60
G01 Y57.4716 F120
G01 X29.8449 Y57.9250
G01 X29.1801
G01 X28.7000 Y57.4716
G01 Y55.2793
G01 X29.1500 Y54.8293
G01 Y38.5919
G01 X29.2037 Y38.3808
G01 X29.3089 Y38.2204
G01 X48.1944 Y19.3349
G01 X48.2000 Y4.3943
G01 X47.9500 Y4.1193
G01 Y1.9284
G01 X48.4301 Y1.4750
G01 X49.0949
G01 X49.5750 Y1.9284
G01 Y4.1207
G01 X49.3058 Y4.3899
G01 X49.3000 Y4.4150
G01 Y19.5618
G01 X49.2750 Y19.6118
G01 Y19.6868
G01 X49.2500 Y19.7368
G01 Y19.8207
G01 X30.2500 Y38.8207
G01 Y55.1062
G01 X30.2291 Y55.1897
G01 X30.3250 Y55.2793
G01 Z-0.2000 F60
G01 Y57.4716 F120
G01 X29.8449 Y57.9250
G01 X29.1801
G01 X28.7000 Y57.4716
G01 Y55.2793
G01 X29.1500 Y54.8293
G01 Y38.5919
G01 X29.2037 Y38.3808
G01 X29.3089 Y38.2204
G01 X48.1944 Y19.3349
G01 X48.2000 Y4.3943
G01 X47.9500 Y4.1193
G01 Y1.9284
G01 X48.4301 Y1.4750
G01 X49.0949
G01 X49.5750 Y1.9284
G01 Y4.1207
G01 X49.3058 Y4.3899
G01 X49.3000 Y4.4150
G01 Y19.5618
G01 X49.2750 Y19.6118
G01 Y19.6868
G01 X49.2500 Y19.7368
G01 Y19.8207
G01 X30.2500 Y38.8207
G01 Y55.1062
G01 X30.2291 Y55.1897
G01 X30.3250 Y55.2793
G00 Z2.0000


;No. 40: Part 42
G00 X27.7750 Y55.2849 Z2.0000
G00 Z0.5000
G01 Z-0.1000 F60
G01 Y57.4716 F120
G01 X27.2949 Y57.9250
G01 X26.6301
G01 X26.1500 Y57.4716
G01 Y55.2793
G01 X26.6293 Y54.8000
G01 X26.6250 Y35.9043
G01 X26.6750 Y35.8543
G01 Y35.7793
G01 X26.7339 Y35.7204
G01 X26.7589 Y35.6704
G01 X43.4043 Y19.0500
G01 X43.4882
G01 X43.5382 Y19.0250
G01 X43.5919
G01 X43.6669 Y19.0000
G01 X43.8950
G01 X43.9000 Y16.8293
G01 X44.5043 Y16.2250
G01 X44.5450
G01 X45.3701
G01 X46.0000 Y16.8287
G01 Y19.7213
G01 X45.3701 Y20.3250
G01 X44.5043
G01 X44.2793 Y20.1000
G01 X43.9000
G01 X43.8821 Y20.1136
G01 X27.7318 Y36.2640
G01 X27.7250 Y55.2099
G01 X27.7750 Y55.2849
G01 Z-0.2000 F60
G01 Y57.4716 F120
G01 X27.2949 Y57.9250
G01 X26.6301
G01 X26.1500 Y57.4716
G01 Y55.2793
G01 X26.6293 Y54.8000
G01 X26.6250 Y35.9043
G01 X26.6750 Y35.8543
G01 Y35.7793
G01 X26.7339 Y35.7204
G01 X26.7589 Y35.6704
G01 X43.4043 Y19.0500
G01 X43.4882
G01 X43.5382 Y19.0250
G01 X43.5919
G01 X43.6669 Y19.0000
G01 X43.8950
G01 X43.9000 Y16.8293
G01 X44.5043 Y16.2250
G01 X44.5450
G01 X45.3701
G01 X46.0000 Y16.8287
G01 Y19.7213
G01 X45.3701 Y20.3250
G01 X44.5043
G01 X44.2793 Y20.1000
G01 X43.9000
G01 X43.8821 Y20.1136
G01 X27.7318 Y36.2640
G01 X27.7250 Y55.2099
G01 X27.7750 Y55.2849
G00 Z2.0000


;No. 41: Part 43
G00 X25.2250 Y55.2833 Z2.0000
G00 Z0.5000
G01 Z-0.1000 F60
G01 Y57.4707 F120
G01 X24.7707 Y57.9250
G01 X24.0793
G01 X23.6250 Y57.4707
G01 Y55.2801
G01 X24.0784 Y54.8000
G01 X24.0750 Y33.5169
G01 X24.1000 Y33.4419
G01 Y33.3632
G01 X24.1589 Y33.2454
G01 X24.2063 Y33.1980
G01 X24.2313 Y33.1230
G01 X45.6750 Y11.7043
G01 Y4.4050
G01 X45.4000 Y4.1207
G01 Y1.9284
G01 X45.8801 Y1.4750
G01 X46.5449
G01 X47.0250 Y1.9284
G01 Y4.1193
G01 X46.7750 Y4.3943
G01 Y11.9331
G01 X46.7500 Y12.0081
G01 Y12.0618
G01 X46.6937 Y12.2020
G01 X46.6411 Y12.2546
G01 X46.6161 Y12.3046
G01 X25.1750 Y33.7457
G01 Y55.1062
G01 X25.1541 Y55.1897
G01 X25.2250 Y55.2833
G01 Z-0.2000 F60
G01 Y57.4707 F120
G01 X24.7707 Y57.9250
G01 X24.0793
G01 X23.6250 Y57.4707
G01 Y55.2801
G01 X24.0784 Y54.8000
G01 X24.0750 Y33.5169
G01 X24.1000 Y33.4419
G01 Y33.3632
G01 X24.1589 Y33.2454
G01 X24.2063 Y33.1980
G01 X24.2313 Y33.1230
G01 X45.6750 Y11.7043
G01 Y4.4050
G01 X45.4000 Y4.1207
G01 Y1.9284
G01 X45.8801 Y1.4750
G01 X46.5449
G01 X47.0250 Y1.9284
G01 Y4.1193
G01 X46.7750 Y4.3943
G01 Y11.9331
G01 X46.7500 Y12.0081
G01 Y12.0618
G01 X46.6937 Y12.2020
G01 X46.6411 Y12.2546
G01 X46.6161 Y12.3046
G01 X25.1750 Y33.7457
G01 Y55.1062
G01 X25.1541 Y55.1897
G01 X25.2250 Y55.2833
G00 Z2.0000


;No. 42: Part 44
G00 X22.7250 Y55.2793 Z2.0000
G00 Z0.5000
G01 Z-0.1000 F60
G01 Y57.4716 F120
G01 X22.2449 Y57.9250
G01 X21.5801
G01 X21.1000 Y57.4716
G01 Y55.2810
G01 X21.2813 Y55.0770
G01 X17.8839 Y51.6796
G01 X17.8589 Y51.6296
G01 X17.8063 Y51.5770
G01 X17.7500 Y51.4368
G01 Y51.3618
G01 X17.7250 Y51.3118
G01 Y29.6882
G01 X17.7500 Y29.6382
G01 Y29.5632
G01 X17.8063 Y29.4230
G01 X17.8589 Y29.3704
G01 X17.8839 Y29.3204
G01 X35.4966 Y11.7077
G01 X35.5000 Y4.3943
G01 X35.2500 Y4.1193
G01 Y1.9284
G01 X35.7301 Y1.4750
G01 X36.3949
G01 X36.8750 Y1.9284
G01 Y4.1207
G01 X36.6058 Y4.3899
G01 X36.6000 Y4.4150
G01 Y11.9331
G01 X36.5750 Y12.0081
G01 Y12.0618
G01 X36.5500 Y12.1118
G01 Y12.1957
G01 X18.8284 Y29.9173
G01 X18.8250 Y51.0800
G01 X22.4903 Y54.7195
G01 X22.6250 Y54.9620
G01 Y55.1750
G01 X22.7250 Y55.2793
G01 Z-0.2000 F60
G01 Y57.4716 F120
G01 X22.2449 Y57.9250
G01 X21.5801
G01 X21.1000 Y57.4716
G01 Y55.2810
G01 X21.2813 Y55.0770
G01 X17.8839 Y51.6796
G01 X17.8589 Y51.6296
G01 X17.8063 Y51.5770
G01 X17.7500 Y51.4368
G01 Y51.3618
G01 X17.7250 Y51.3118
G01 Y29.6882
G01 X17.7500 Y29.6382
G01 Y29.5632
G01 X17.8063 Y29.4230
G01 X17.8589 Y29.3704
G01 X17.8839 Y29.3204
G01 X35.4966 Y11.7077
G01 X35.5000 Y4.3943
G01 X35.2500 Y4.1193
G01 Y1.9284
G01 X35.7301 Y1.4750
G01 X36.3949
G01 X36.8750 Y1.9284
G01 Y4.1207
G01 X36.6058 Y4.3899
G01 X36.6000 Y4.4150
G01 Y11.9331
G01 X36.5750 Y12.0081
G01 Y12.0618
G01 X36.5500 Y12.1118
G01 Y12.1957
G01 X18.8284 Y29.9173
G01 X18.8250 Y51.0800
G01 X22.4903 Y54.7195
G01 X22.6250 Y54.9620
G01 Y55.1750
G01 X22.7250 Y55.2793
G00 Z2.0000


;No. 43: Part 45
G00 X20.1750 Y55.2793 Z2.0000
G00 Z0.5000
G01 Z-0.1000 F60
G01 Y57.4716 F120
G01 X19.6949 Y57.9250
G01 X19.0301
G01 X18.5500 Y57.4716
G01 Y55.2793
G01 X19.0293 Y54.8000
G01 X19.6957
G01 X20.1750 Y55.2793
G01 Z-0.2000 F60
G01 Y57.4716 F120
G01 X19.6949 Y57.9250
G01 X19.0301
G01 X18.5500 Y57.4716
G01 Y55.2793
G01 X19.0293 Y54.8000
G01 X19.6957
G01 X20.1750 Y55.2793
G00 Z2.0000


;No. 44: Part 6
G00 X5.9000 Y66.5707 Z2.0000
G00 Z0.5000
G01 Z-0.1000 F60
G01 Y63.9793 F120
G01 X6.4543 Y63.4250
G01 X7.2457
G01 X7.8000 Y63.9793
G01 Y66.5721
G01 X7.5321 Y66.8157
G01 X12.3679 Y80.1424
G01 X18.4139 Y83.7750
G01 X20.9707
G01 X21.0207 Y83.8250
G01 X21.0957
G01 X21.1546 Y83.8839
G01 X21.2047 Y83.9089
G01 X27.3922 Y90.1214
G01 X56.1550 Y90.1250
G01 X63.4500 Y82.8293
G01 Y65.2669
G01 X63.4750 Y65.1919
G01 Y65.1132
G01 X63.5000 Y65.0632
G01 Y65.0043
G01 X63.6111 Y64.8681
G01 X66.0471 Y62.4322
G01 X66.0500 Y62.0543
G01 X66.5293 Y61.5750
G01 X68.7207
G01 X69.2000 Y62.0543
G01 Y62.7207
G01 X68.7207 Y63.2000
G01 X66.8457
G01 X64.5552 Y65.4905
G01 X64.5500 Y65.5150
G01 Y83.0618
G01 X64.5250 Y83.1118
G01 Y83.1868
G01 X64.4687 Y83.3270
G01 X64.4161 Y83.3796
G01 X64.3911 Y83.4296
G01 X56.7546 Y91.0661
G01 X56.7046 Y91.0911
G01 X56.6520 Y91.1437
G01 X56.5118 Y91.2000
G01 X56.4581
G01 X56.3831 Y91.2250
G01 X27.1669
G01 X27.0919 Y91.2000
G01 X27.0132
G01 X26.8954 Y91.1411
G01 X26.8480 Y91.0937
G01 X26.7730 Y91.0687
G01 X20.5845 Y84.8802
G01 X18.2669 Y84.8750
G01 X18.0049 Y84.7963
G01 X11.5463 Y80.9045
G01 X11.5089 Y80.8296
G01 X11.4068 Y80.7025
G01 X6.4642 Y67.1229
G01 X5.9000 Y66.5707
G01 Z-0.2000 F60
G01 Y63.9793 F120
G01 X6.4543 Y63.4250
G01 X7.2457
G01 X7.8000 Y63.9793
G01 Y66.5721
G01 X7.5321 Y66.8157
G01 X12.3679 Y80.1424
G01 X18.4139 Y83.7750
G01 X20.9707
G01 X21.0207 Y83.8250
G01 X21.0957
G01 X21.1546 Y83.8839
G01 X21.2047 Y83.9089
G01 X27.3922 Y90.1214
G01 X56.1550 Y90.1250
G01 X63.4500 Y82.8293
G01 Y65.2669
G01 X63.4750 Y65.1919
G01 Y65.1132
G01 X63.5000 Y65.0632
G01 Y65.0043
G01 X63.6111 Y64.8681
G01 X66.0471 Y62.4322
G01 X66.0500 Y62.0543
G01 X66.5293 Y61.5750
G01 X68.7207
G01 X69.2000 Y62.0543
G01 Y62.7207
G01 X68.7207 Y63.2000
G01 X66.8457
G01 X64.5552 Y65.4905
G01 X64.5500 Y65.5150
G01 Y83.0618
G01 X64.5250 Y83.1118
G01 Y83.1868
G01 X64.4687 Y83.3270
G01 X64.4161 Y83.3796
G01 X64.3911 Y83.4296
G01 X56.7546 Y91.0661
G01 X56.7046 Y91.0911
G01 X56.6520 Y91.1437
G01 X56.5118 Y91.2000
G01 X56.4581
G01 X56.3831 Y91.2250
G01 X27.1669
G01 X27.0919 Y91.2000
G01 X27.0132
G01 X26.8954 Y91.1411
G01 X26.8480 Y91.0937
G01 X26.7730 Y91.0687
G01 X20.5845 Y84.8802
G01 X18.2669 Y84.8750
G01 X18.0049 Y84.7963
G01 X11.5463 Y80.9045
G01 X11.5089 Y80.8296
G01 X11.4068 Y80.7025
G01 X6.4642 Y67.1229
G01 X5.9000 Y66.5707
G00 Z2.0000


;No. 45: Part 3
G00 X7.8000 Y83.9450 Z2.0000
G00 Z0.5000
G01 Z-0.1000 F60
G01 Y90.2450 F120
G01 X7.7300 Y90.3250
G01 X4.4300
G01 X4.3500 Y90.2550
G01 Y83.9550
G01 X4.4200 Y83.8750
G01 X7.7200
G01 X7.8000 Y83.9450
G01 Z-0.2000 F60
G01 Y90.2450 F120
G01 X7.7300 Y90.3250
G01 X4.4300
G01 X4.3500 Y90.2550
G01 Y83.9550
G01 X4.4200 Y83.8750
G01 X7.7200
G01 X7.8000 Y83.9450
G00 Z2.0000


;No. 46: Part 5
G00 X10.6550 Y85.5500 Z2.0000
G00 Z0.5000
G01 Z-0.1000 F60
G01 X8.1150 F120
G01 X8.0250 Y85.4800
G01 Y84.1400
G01 X8.0950 Y84.0500
G01 X8.3150
G01 X6.4100 Y80.8555
G01 X5.8036 Y80.2258
G01 X5.7457 Y80.2750
G01 X2.8799
G01 X2.2500 Y79.6713
G01 Y78.8043
G01 X2.8793 Y78.1750
G01 X5.7463
G01 X6.3500 Y78.8049
G01 Y79.2250
G01 X6.3636 Y79.2429
G01 X7.2411 Y80.1204
G01 X7.3148 Y80.2191
G01 X9.5768 Y84.0471
G01 X10.6500 Y84.0500
G01 X10.7250 Y84.1200
G01 Y85.4600
G01 X10.6550 Y85.5500
G01 Z-0.2000 F60
G01 X8.1150 F120
G01 X8.0250 Y85.4800
G01 Y84.1400
G01 X8.0950 Y84.0500
G01 X8.3150
G01 X6.4100 Y80.8555
G01 X5.8036 Y80.2258
G01 X5.7457 Y80.2750
G01 X2.8799
G01 X2.2500 Y79.6713
G01 Y78.8043
G01 X2.8793 Y78.1750
G01 X5.7463
G01 X6.3500 Y78.8049
G01 Y79.2250
G01 X6.3636 Y79.2429
G01 X7.2411 Y80.1204
G01 X7.3148 Y80.2191
G01 X9.5768 Y84.0471
G01 X10.6500 Y84.0500
G01 X10.7250 Y84.1200
G01 Y85.4600
G01 X10.6550 Y85.5500
G00 Z2.0000


;No. 47: Part 4
G00 X8.0250 Y87.7800 Z2.0000
G00 Z0.5000
G01 Z-0.1000 F60
G01 Y86.4400 F120
G01 X8.0950 Y86.3500
G01 X10.4919
G01 X10.6419 Y86.3000
G01 X12.6500
G01 Y84.6561
G01 X10.3955 Y83.5412
G01 X10.2889 Y83.4111
G01 X10.1589 Y83.3046
G01 X3.8023 Y70.5914
G01 X3.7500 Y70.3562
G01 Y61.4427
G03 X4.2927 Y60.9000 I0.5657 J0.0231
G01 X6.8707
G01 X7.1667 Y61.0000
G01 X12.2619 Y64.8402
G01 X12.3139 Y64.9181
G01 X12.4250 Y65.0293
G01 X12.4750 Y65.2700
G01 Y74.0669
G01 X13.5845 Y77.4201
G01 X54.8700 Y77.4250
G01 X55.8250 Y76.4793
G01 Y73.4250
G01 X55.0950
G01 X54.8235 Y73.3707
G01 X54.6307 Y73.1504
G01 X54.5813 Y73.0020
G01 X54.3000 Y72.7207
G01 Y70.5293
G01 X54.7793 Y70.0500
G01 X55.4457
G01 X55.9250 Y70.5293
G01 Y72.3300
G01 X56.3823 Y72.3250
G01 X56.6514 Y72.4057
G01 X56.8443 Y72.5986
G01 X56.9250 Y72.8677
G01 Y76.7118
G01 X56.9000 Y76.7618
G01 Y76.8368
G01 X56.8437 Y76.9770
G01 X56.7911 Y77.0296
G01 X56.7661 Y77.0796
G01 X55.4796 Y78.3661
G01 X55.4296 Y78.3911
G01 X55.3770 Y78.4437
G01 X55.2368 Y78.5000
G01 X55.1831
G01 X55.1081 Y78.5250
G01 X13.1882
G03 X12.7000 Y78.2050 I0.0317 J-0.5808
G01 X11.4000 Y74.3332
G01 Y74.2331
G01 X11.3750 Y74.1581
G01 Y65.5500
G01 X6.6649 Y62.0050
G01 X4.8550 Y62.0000
G01 X4.8500 Y70.2132
G01 X11.0623 Y82.6377
G01 X13.5020 Y83.8610
G01 X13.6750 Y84.0688
G01 X13.6972 Y84.1575
G01 X13.7500 Y84.2632
G01 Y86.8573
G01 X13.6698 Y87.1248
G01 X13.4765 Y87.3457
G01 X13.2050 Y87.4000
G01 X10.7250
G01 Y87.7700
G01 X10.6550 Y87.8500
G01 X8.1150
G01 X8.0250 Y87.7800
G01 Z-0.2000 F60
G01 Y86.4400 F120
G01 X8.0950 Y86.3500
G01 X10.4919
G01 X10.6419 Y86.3000
G01 X12.6500
G01 Y84.6561
G01 X10.3955 Y83.5412
G01 X10.2889 Y83.4111
G01 X10.1589 Y83.3046
G01 X3.8023 Y70.5914
G01 X3.7500 Y70.3562
G01 Y61.4427
G03 X4.2927 Y60.9000 I0.5657 J0.0231
G01 X6.8707
G01 X7.1667 Y61.0000
G01 X12.2619 Y64.8402
G01 X12.3139 Y64.9181
G01 X12.4250 Y65.0293
G01 X12.4750 Y65.2700
G01 Y74.0669
G01 X13.5845 Y77.4201
G01 X54.8700 Y77.4250
G01 X55.8250 Y76.4793
G01 Y73.4250
G01 X55.0950
G01 X54.8235 Y73.3707
G01 X54.6307 Y73.1504
G01 X54.5813 Y73.0020
G01 X54.3000 Y72.7207
G01 Y70.5293
G01 X54.7793 Y70.0500
G01 X55.4457
G01 X55.9250 Y70.5293
G01 Y72.3300
G01 X56.3823 Y72.3250
G01 X56.6514 Y72.4057
G01 X56.8443 Y72.5986
G01 X56.9250 Y72.8677
G01 Y76.7118
G01 X56.9000 Y76.7618
G01 Y76.8368
G01 X56.8437 Y76.9770
G01 X56.7911 Y77.0296
G01 X56.7661 Y77.0796
G01 X55.4796 Y78.3661
G01 X55.4296 Y78.3911
G01 X55.3770 Y78.4437
G01 X55.2368 Y78.5000
G01 X55.1831
G01 X55.1081 Y78.5250
G01 X13.1882
G03 X12.7000 Y78.2050 I0.0317 J-0.5808
G01 X11.4000 Y74.3332
G01 Y74.2331
G01 X11.3750 Y74.1581
G01 Y65.5500
G01 X6.6649 Y62.0050
G01 X4.8550 Y62.0000
G01 X4.8500 Y70.2132
G01 X11.0623 Y82.6377
G01 X13.5020 Y83.8610
G01 X13.6750 Y84.0688
G01 X13.6972 Y84.1575
G01 X13.7500 Y84.2632
G01 Y86.8573
G01 X13.6698 Y87.1248
G01 X13.4765 Y87.3457
G01 X13.2050 Y87.4000
G01 X10.7250
G01 Y87.7700
G01 X10.6550 Y87.8500
G01 X8.1150
G01 X8.0250 Y87.7800
G00 Z2.0000


;No. 48: Part 2
G00 X1.5250 Y89.0800 Z2.0000
G00 Z0.5000
G01 Z-0.1000 F60
G01 Y85.1400 F120
G01 X1.5950 Y85.0500
G01 X4.1350
G01 X4.2250 Y85.1200
G01 Y89.0600
G01 X4.1550 Y89.1500
G01 X1.6150
G01 X1.5250 Y89.0800
G01 Z-0.2000 F60
G01 Y85.1400 F120
G01 X1.5950 Y85.0500
G01 X4.1350
G01 X4.2250 Y85.1200
G01 Y89.0600
G01 X4.1550 Y89.1500
G01 X1.6150
G01 X1.5250 Y89.0800
G00 Z2.0000


;No. 49: Part 1
G00 X-0.0500 Y93.2050 Z2.0000
G00 Z0.5000
G01 Z-0.1000 F60
G01 Y77.9188 F120
G01 X0.0049 Y77.6994
G01 X0.2293 Y77.4750
G01 X0.2631
G01 X2.2510 Y76.4688
G01 X2.2500 Y76.2543
G01 X2.4750 Y76.0293
G01 Y75.5616
G01 X1.2778 Y73.1173
G01 X1.2250 Y72.8800
G01 Y56.3700
G01 X1.2793 Y56.0985
G01 X1.5002 Y55.9052
G01 X1.7677 Y55.8250
G01 X3.0812
G01 X3.3151 Y55.9000
G01 X14.7818 Y63.5361
G01 X14.9750 Y63.7543
G01 Y63.8654
G01 X15.0250 Y63.9904
G01 Y76.1500
G01 X49.8883
G01 X52.0294 Y75.0918
G01 X52.0250 Y72.9721
G01 X51.7500 Y72.7221
G01 Y70.5293
G01 X52.2293 Y70.0500
G01 X52.8957
G01 X53.3750 Y70.5293
G01 Y72.7207
G01 X53.1250 Y72.9707
G01 Y74.2700
G01 X54.7216 Y74.2750
G01 X55.1750 Y74.7551
G01 Y75.4207
G01 X54.7207 Y75.8750
G01 X52.8800
G01 X52.8045 Y75.9287
G01 X50.2675 Y77.1972
G01 X50.0300 Y77.2500
G01 X14.4677
G01 X14.2002 Y77.1698
G01 X13.9793 Y76.9765
G01 X13.9250 Y76.7050
G01 Y64.2800
G01 X2.8599 Y56.9250
G01 X2.3250
G01 Y72.7550
G01 X3.5222 Y75.1826
G01 X3.5750 Y75.4200
G01 Y75.6450
G01 X5.7457 Y75.6500
G01 X6.3500 Y76.2543
G01 Y77.1201
G01 X5.7463 Y77.7500
G01 X2.8793
G01 X2.6384 Y77.5091
G01 X1.0500 Y78.3059
G01 Y92.6550
G01 X6.9632 Y92.6500
G01 X7.0779 Y92.5927
G01 X7.1950 Y92.5750
G01 X7.3631 Y92.5869
G01 X7.5103 Y92.6500
G01 X10.1000
G01 Y90.1500
G01 X8.1100
G01 X8.0250 Y90.0800
G01 Y88.7400
G01 X8.0950 Y88.6500
G01 X10.6350
G01 X10.7250 Y88.7200
G01 Y88.8600
G01 X10.9251 Y88.9043
G01 X11.1461 Y89.1253
G01 X11.2000 Y89.3950
G01 Y93.2050
G01 X11.1461 Y93.4747
G01 X10.9247 Y93.6961
G01 X10.6550 Y93.7500
G01 X10.3700
G01 X10.2758 Y93.8055
G01 X10.1806
G01 X10.1043 Y93.7500
G01 X9.6707
G01 X9.6028 Y93.7999
G01 X9.5098 Y93.8108
G01 X9.4000 Y93.7500
G01 X9.2559
G01 X9.1800 Y93.8000
G01 X9.0207
G01 X8.9957 Y93.8250
G01 X8.7882
G01 X8.6500 Y93.7500
G01 X8.3800
G01 X8.1570 Y93.8250
G01 X8.0930
G01 X7.8988 Y93.7695
G01 X7.8793 Y93.7500
G01 X7.4457
G01 X7.4262 Y93.7695
G01 X7.2320 Y93.8250
G01 X7.1680
G01 X7.0459 Y93.7901
G01 X6.8793 Y93.8000
G01 X6.8293 Y93.7500
G01 X0.4950
G01 X0.2253 Y93.6961
G01 X0.1722 Y93.6429
G01 X0.0039 Y93.4747
G01 X-0.0500 Y93.2050
G01 Z-0.2000 F60
G01 Y77.9188 F120
G01 X0.0049 Y77.6994
G01 X0.2293 Y77.4750
G01 X0.2631
G01 X2.2510 Y76.4688
G01 X2.2500 Y76.2543
G01 X2.4750 Y76.0293
G01 Y75.5616
G01 X1.2778 Y73.1173
G01 X1.2250 Y72.8800
G01 Y56.3700
G01 X1.2793 Y56.0985
G01 X1.5002 Y55.9052
G01 X1.7677 Y55.8250
G01 X3.0812
G01 X3.3151 Y55.9000
G01 X14.7818 Y63.5361
G01 X14.9750 Y63.7543
G01 Y63.8654
G01 X15.0250 Y63.9904
G01 Y76.1500
G01 X49.8883
G01 X52.0294 Y75.0918
G01 X52.0250 Y72.9721
G01 X51.7500 Y72.7221
G01 Y70.5293
G01 X52.2293 Y70.0500
G01 X52.8957
G01 X53.3750 Y70.5293
G01 Y72.7207
G01 X53.1250 Y72.9707
G01 Y74.2700
G01 X54.7216 Y74.2750
G01 X55.1750 Y74.7551
G01 Y75.4207
G01 X54.7207 Y75.8750
G01 X52.8800
G01 X52.8045 Y75.9287
G01 X50.2675 Y77.1972
G01 X50.0300 Y77.2500
G01 X14.4677
G01 X14.2002 Y77.1698
G01 X13.9793 Y76.9765
G01 X13.9250 Y76.7050
G01 Y64.2800
G01 X2.8599 Y56.9250
G01 X2.3250
G01 Y72.7550
G01 X3.5222 Y75.1826
G01 X3.5750 Y75.4200
G01 Y75.6450
G01 X5.7457 Y75.6500
G01 X6.3500 Y76.2543
G01 Y77.1201
G01 X5.7463 Y77.7500
G01 X2.8793
G01 X2.6384 Y77.5091
G01 X1.0500 Y78.3059
G01 Y92.6550
G01 X6.9632 Y92.6500
G01 X7.0779 Y92.5927
G01 X7.1950 Y92.5750
G01 X7.3631 Y92.5869
G01 X7.5103 Y92.6500
G01 X10.1000
G01 Y90.1500
G01 X8.1100
G01 X8.0250 Y90.0800
G01 Y88.7400
G01 X8.0950 Y88.6500
G01 X10.6350
G01 X10.7250 Y88.7200
G01 Y88.8600
G01 X10.9251 Y88.9043
G01 X11.1461 Y89.1253
G01 X11.2000 Y89.3950
G01 Y93.2050
G01 X11.1461 Y93.4747
G01 X10.9247 Y93.6961
G01 X10.6550 Y93.7500
G01 X10.3700
G01 X10.2758 Y93.8055
G01 X10.1806
G01 X10.1043 Y93.7500
G01 X9.6707
G01 X9.6028 Y93.7999
G01 X9.5098 Y93.8108
G01 X9.4000 Y93.7500
G01 X9.2559
G01 X9.1800 Y93.8000
G01 X9.0207
G01 X8.9957 Y93.8250
G01 X8.7882
G01 X8.6500 Y93.7500
G01 X8.3800
G01 X8.1570 Y93.8250
G01 X8.0930
G01 X7.8988 Y93.7695
G01 X7.8793 Y93.7500
G01 X7.4457
G01 X7.4262 Y93.7695
G01 X7.2320 Y93.8250
G01 X7.1680
G01 X7.0459 Y93.7901
G01 X6.8793 Y93.8000
G01 X6.8293 Y93.7500
G01 X0.4950
G01 X0.2253 Y93.6961
G01 X0.1722 Y93.6429
G01 X0.0039 Y93.4747
G01 X-0.0500 Y93.2050
G00 Z2.0000
G00 X0.0000 Y0.0000

M05
